packages/icon/src/svg/home-admin-tools.icon.svg

<svg width="24" height="24" viewBox="0 0 24 24" fill="none" xmlns="http://www.w3.org/2000/svg">
<path d="M11.9938 14.076C10.6799 14.076 9.61143 12.9655 9.61143 11.6C9.61143 10.2344 10.6799 9.12388 11.9938 9.12388C13.3077 9.12388 14.3762 10.2344 14.3762 11.6C14.3762 12.9655 13.3077 14.076 11.9938 14.076ZM7.52684 19.0282C7.36238 19.0282 7.22905 18.8962 7.22905 18.7334V18.4387C7.22905 16.3558 9.18856 14.9014 11.9938 14.9014C14.7991 14.9014 16.7586 16.3558 16.7586 18.4387V18.7334C16.7586 18.8962 16.6253 19.0282 16.4608 19.0282H7.52684ZM20.5704 13.4987V21.0096C20.5704 21.5566 20.1438 22 19.6175 22H14.8527C14.3264 22 9.66126 22 9.13496 22H4.37018C3.84388 22 3.41723 21.5566 3.41723 21.0096V13.5099L2.48724 14.4764C2.30116 14.6698 1.99947 14.6698 1.8134 14.4764L1.13956 13.7761C0.953481 13.5827 0.953481 13.2691 1.13956 13.0757L11.6569 2.14485L11.6571 2.14504C11.8431 1.95173 12.1446 1.95164 12.3307 2.14485L22.8601 13.0758L22.8603 13.0757C23.0464 13.269 23.0466 13.5825 22.8606 13.776L22.8605 13.7762L22.1864 14.4766L22.1863 14.4764C22.0003 14.6698 21.6987 14.6699 21.5126 14.4767L20.5704 13.4987ZM18.6645 11.5203L11.9939 4.5959L5.32314 11.529V20.0191H18.6645V11.5203Z" fill="white"/>
</svg>

<svg aria-label="home admin tools icon" viewBox="0 0 24 24"><path d="M11.994 14.076c-1.314 0-2.383-1.11-2.383-2.476 0-1.366 1.069-2.476 2.383-2.476s2.382 1.11 2.382 2.476c0 1.366-1.068 2.476-2.382 2.476zm-4.467 4.952a.296.296 0 01-.298-.295v-.294c0-2.083 1.96-3.538 4.765-3.538 2.805 0 4.765 1.455 4.765 3.538v.294a.296.296 0 01-.298.295H7.527zm13.043-5.53v7.512c0 .547-.426.99-.953.99H4.37c-.526 0-.953-.443-.953-.99v-7.5l-.93.966a.464.464 0 01-.674 0l-.673-.7a.51.51 0 010-.7L11.657 2.145a.464.464 0 01.674 0l10.53 10.93a.51.51 0 010 .701l-.675.7a.464.464 0 01-.673 0l-.943-.977zm-1.905-1.978l-6.671-6.924-6.67 6.933v8.49h13.34V11.52z"/></svg>
